icons/1_Primary/DedicatedMC.svg

<svg xmlns="http://www.w3.org/2000/svg" width="1024" height="1024" fill="none">
   <g clip-path="url(#a)">
      <path fill="#96DFD3" d="M512 1024c282.77 0 512-229.23 512-512S794.77 0 512 0 0 229.23 0 512s229.23 512 512 512Z"/>
      <path fill="#fff" d="M536.56 744V640a128 128 0 1 0-.56-256H408L304 280h232.56a232.266 232.266 0 0 1 46.73 4.74 229.4 229.4 0 0 1 82.8 35.06 233.576 233.576 0 0 1 84.751 105.073A233.58 233.58 0 0 1 763.3 559.29a230.844 230.844 0 0 1-180 180 234.426 234.426 0 0 1-46.74 4.71ZM356.27 511.14c0-33.88 26.5-61.95 58.44-62 34.06-.08 63.24 28.44 63.62 62.16.39 34.57-27.79 63.84-61.3 63.64-33.51-.2-60.83-28.94-60.76-63.8Zm-.64 129.6h144.16V744H355.63A51.633 51.633 0 0 1 304 692.37a51.633 51.633 0 0 1 51.63-51.63Z"/>
   </g>
   <defs>
      <clipPath id="a">
         <path fill="#fff" d="M0 0h1024v1024H0z"/>
      </clipPath>
   </defs>
</svg>

<svg width="1024" height="1024" viewBox="0 0 1024 1024" fill="none" xmlns="http://www.w3.org/2000/svg">
<g clip-path="url(#clip0_2_1965)">
<path d="M512 1024C794.77 1024 1024 794.77 1024 512C1024 229.23 794.77 0 512 0C229.23 0 0 229.23 0 512C0 794.77 229.23 1024 512 1024Z" fill="#96DFD3"/>
<path d="M536.56 744V640C570.508 639.926 603.036 626.369 626.988 602.312C650.94 578.255 664.354 545.668 664.28 511.72C664.206 477.772 650.649 445.244 626.592 421.292C602.535 397.34 569.948 383.926 536 384H408L304 280H536.56C552.257 279.997 567.914 281.585 583.29 284.74C612.933 290.85 641.073 302.766 666.09 319.8C704.066 345.719 733.548 382.271 750.841 424.873C768.133 467.476 772.467 514.235 763.3 559.29C754.247 603.635 732.357 644.34 700.354 676.344C668.35 708.347 627.645 730.237 583.3 739.29C567.917 742.421 552.258 743.999 536.56 744ZM356.27 511.14C356.27 477.26 382.77 449.19 414.71 449.14C448.77 449.06 477.95 477.58 478.33 511.3C478.72 545.87 450.54 575.14 417.03 574.94C383.52 574.74 356.2 546 356.27 511.14ZM355.63 640.74H499.79V744H355.63C341.937 744 328.805 738.56 319.122 728.878C309.44 719.195 304 706.063 304 692.37C304 678.677 309.44 665.545 319.122 655.862C328.805 646.18 341.937 640.74 355.63 640.74Z" fill="white"/>
</g>
<defs>
<clipPath id="clip0_2_1965">
<rect width="1024" height="1024" fill="white"/>
</clipPath>
</defs>
</svg>
